polaris-icons/icons/new-icons/ButtonMinor.svg

<svg width="20" height="20" viewBox="0 0 20 20" fill="none" xmlns="http://www.w3.org/2000/svg">
<path d="M6.75 4C4.67893 4 3 5.67893 3 7.75V10.25C3 12.3211 4.67893 14 6.75 14H8.25C8.66421 14 9 13.6642 9 13.25C9 12.8358 8.66421 12.5 8.25 12.5H6.75C5.50736 12.5 4.5 11.4926 4.5 10.25V7.75C4.5 6.50736 5.50736 5.5 6.75 5.5H13.25C14.4926 5.5 15.5 6.50736 15.5 7.75V8.25C15.5 8.66421 15.8358 9 16.25 9C16.6642 9 17 8.66421 17 8.25V7.75C17 5.67893 15.3211 4 13.25 4H6.75Z" fill="#4A4A4A"/>
<path d="M9.46444 8.46444C9.66867 8.26021 9.97203 8.1914 10.2444 8.28753L16.2548 10.4088C16.4977 10.4946 16.6796 10.699 16.7366 10.9502C16.7936 11.2014 16.7177 11.4643 16.5355 11.6464L15.2981 12.8839L16.7123 14.2981C17.0052 14.591 17.0052 15.0658 16.7123 15.3587L16.3587 15.7123C16.0658 16.0052 15.591 16.0052 15.2981 15.7123L13.8839 14.2981L12.6464 15.5355C12.4643 15.7177 12.2014 15.7936 11.9502 15.7366C11.699 15.6796 11.4946 15.4977 11.4088 15.2548L9.28753 9.24439C9.1914 8.97203 9.26021 8.66867 9.46444 8.46444Z" fill="#4A4A4A"/>
</svg>

<svg viewBox="0 0 20 20" xmlns="http://www.w3.org/2000/svg"><path d="M6.75 4a3.75 3.75 0 0 0-3.75 3.75v2.5a3.75 3.75 0 0 0 3.75 3.75h1.5a.75.75 0 0 0 0-1.5h-1.5a2.25 2.25 0 0 1-2.25-2.25v-2.5a2.25 2.25 0 0 1 2.25-2.25h6.5a2.25 2.25 0 0 1 2.25 2.25v.5a.75.75 0 0 0 1.5 0v-.5a3.75 3.75 0 0 0-3.75-3.75h-6.5Z" fill="#5C5F62"/><path d="M9.464 8.464a.75.75 0 0 1 .78-.176l6.01 2.12a.75.75 0 0 1 .281 1.238l-1.237 1.238 1.414 1.414a.75.75 0 0 1 0 1.06l-.353.354a.75.75 0 0 1-1.06 0l-1.415-1.414-1.238 1.238a.75.75 0 0 1-1.237-.281l-2.121-6.01a.75.75 0 0 1 .176-.78Z" fill="#5C5F62"/></svg>
